/*
1. LFNoise
2. FM/PMOsc
3. LinLin.ar/LinExp.ar
4. Note*2^(x/12)
5. White/pink/brown noise
6. Filters
7. .round/.range
8. Comb delay lines
9. Resonator (modal synthesis)(clank)
10. wave folding/wrapping
11. beats


check out chaosclilator
wave splicing(not for Ndefs)
*/